ummisco.gama.ui.shared/svg/branding/ummisco.gama.feature.modeling.ui.svg

<?xml version="1.0" encoding="UTF-8" standalone="no"?>
<!DOCTYPE svg PUBLIC "-//W3C//DTD SVG 1.1//EN" "http://www.w3.org/Graphics/SVG/1.1/DTD/svg11.dtd">
<svg xmlns:xl="http://www.w3.org/1999/xlink" version="1.1" xmlns="http://www.w3.org/2000/svg" xmlns:dc="http://purl.org/dc/elements/1.1/" viewBox="-532 -3145.1854 48 48" width="48" height="48">
  <defs/>
  <g id="ICONES" stroke="none" stroke-opacity="1" stroke-dasharray="none" fill="none" fill-opacity="1">
    <title>ICONES</title>
    <g id="ICONES_Calque_1">
      <title>Calque 1</title>
      <g id="Group_4259">
        <g id="Graphic_3955">
          <path d="M -529 -3145.1854 L -487 -3145.1854 C -485.34315 -3145.1854 -484 -3143.8423 -484 -3142.1854 L -484 -3100.1854 C -484 -3098.5286 -485.34315 -3097.1854 -487 -3097.1854 L -529 -3097.1854 C -530.65685 -3097.1854 -532 -3098.5286 -532 -3100.1854 L -532 -3142.1854 C -532 -3143.8423 -530.65685 -3145.1854 -529 -3145.1854 Z" fill="white"/>
        </g>
        <g id="Group_3948">
          <g id="Graphic_3954">
            <path d="M -530.60404 -3122.734 L -527.57504 -3122.734 C -527.2233 -3127.2347 -525.3262 -3131.6373 -521.8837 -3135.0797 C -514.21526 -3142.7482 -501.78225 -3142.7482 -494.1138 -3135.0797 C -490.6713 -3131.6373 -488.7742 -3127.2347 -488.4225 -3122.734 L -485.3935 -3122.734 C -485.7505 -3128.0092 -487.9452 -3133.1835 -491.97765 -3137.216 C -500.82587 -3146.064 -515.17165 -3146.064 -524.01986 -3137.216 C -528.0523 -3133.1835 -530.24704 -3128.0092 -530.60404 -3122.734 Z" fill="#efb54f" fill-opacity=".25239327"/>
            <path d="M -530.60404 -3122.734 L -527.57504 -3122.734 C -527.2233 -3127.2347 -525.3262 -3131.6373 -521.8837 -3135.0797 C -514.21526 -3142.7482 -501.78225 -3142.7482 -494.1138 -3135.0797 C -490.6713 -3131.6373 -488.7742 -3127.2347 -488.4225 -3122.734 L -485.3935 -3122.734 C -485.7505 -3128.0092 -487.9452 -3133.1835 -491.97765 -3137.216 C -500.82587 -3146.064 -515.17165 -3146.064 -524.01986 -3137.216 C -528.0523 -3133.1835 -530.24704 -3128.0092 -530.60404 -3122.734 Z" stroke="#efb64f" stroke-linecap="round" stroke-linejoin="round" stroke-width="0"/>
          </g>
          <g id="Graphic_3953">
            <path d="M -524.9256 -3122.6968 L -521.8903 -3122.6968 C -521.56134 -3125.7568 -520.22406 -3128.729 -517.87844 -3131.0745 C -512.42204 -3136.531 -503.5755 -3136.531 -498.1191 -3131.0745 C -495.77346 -3128.729 -494.4362 -3125.7568 -494.10724 -3122.6968 L -491.0719 -3122.6968 C -491.4102 -3126.5324 -493.04724 -3130.275 -495.98293 -3133.2106 C -502.6191 -3139.8468 -513.3784 -3139.8468 -520.0146 -3133.2106 C -522.9503 -3130.275 -524.5873 -3126.5324 -524.9256 -3122.6968 Z" fill="#d3673a" fill-opacity=".24884463"/>
            <path d="M -524.9256 -3122.6968 L -521.8903 -3122.6968 C -521.56134 -3125.7568 -520.22406 -3128.729 -517.87844 -3131.0745 C -512.42204 -3136.531 -503.5755 -3136.531 -498.1191 -3131.0745 C -495.77346 -3128.729 -494.4362 -3125.7568 -494.10724 -3122.6968 L -491.0719 -3122.6968 C -491.4102 -3126.5324 -493.04724 -3130.275 -495.98293 -3133.2106 C -502.6191 -3139.8468 -513.3784 -3139.8468 -520.0146 -3133.2106 C -522.9503 -3130.275 -524.5873 -3126.5324 -524.9256 -3122.6968 Z" stroke="#d2673a" stroke-linecap="round" stroke-linejoin="round" stroke-width="0"/>
          </g>
          <g id="Graphic_3952">
            <path d="M -519.223 -3122.734 L -516.1634 -3122.734 C -515.8655 -3124.322 -515.1021 -3125.8403 -513.87316 -3127.0692 C -510.6288 -3130.3136 -505.3687 -3130.3136 -502.12435 -3127.0692 C -500.89544 -3125.8403 -500.132 -3124.322 -499.8341 -3122.734 L -496.77453 -3122.734 C -497.09733 -3125.101 -498.16856 -3127.3857 -499.9882 -3129.2053 C -504.4123 -3133.6295 -511.5852 -3133.6295 -516.0093 -3129.2053 C -517.82896 -3127.3857 -518.9002 -3125.101 -519.223 -3122.734 Z" fill="#3570a0" fill-opacity=".2496699"/>
            <path d="M -519.223 -3122.734 L -516.1634 -3122.734 C -515.8655 -3124.322 -515.1021 -3125.8403 -513.87316 -3127.0692 C -510.6288 -3130.3136 -505.3687 -3130.3136 -502.12435 -3127.0692 C -500.89544 -3125.8403 -500.132 -3124.322 -499.8341 -3122.734 L -496.77453 -3122.734 C -497.09733 -3125.101 -498.16856 -3127.3857 -499.9882 -3129.2053 C -504.4123 -3133.6295 -511.5852 -3133.6295 -516.0093 -3129.2053 C -517.82896 -3127.3857 -518.9002 -3125.101 -519.223 -3122.734 Z" stroke="#3770a0" stroke-linecap="round" stroke-linejoin="round" stroke-width="0"/>
          </g>
          <g id="Graphic_3951">
            <path d="M -524.94556 -3122.734 L -521.9097 -3122.734 C -521.57583 -3125.7844 -520.2395 -3128.746 -517.90076 -3131.0848 C -515.1525 -3133.833 -511.5442 -3135.197 -507.94224 -3135.177 C -506.0555 -3135.1663 -504.1705 -3134.776 -502.4117 -3134.0057 L -501.23095 -3136.7874 C -503.36784 -3137.718 -505.657 -3138.188 -507.94776 -3138.198 C -512.32104 -3138.2167 -516.7002 -3136.5577 -520.0369 -3133.221 C -522.96576 -3130.292 -524.602 -3126.56 -524.94556 -3122.734 Z" fill="#d3673a"/>
            <path d="M -524.94556 -3122.734 L -521.9097 -3122.734 C -521.57583 -3125.7844 -520.2395 -3128.746 -517.90076 -3131.0848 C -515.1525 -3133.833 -511.5442 -3135.197 -507.94224 -3135.177 C -506.0555 -3135.1663 -504.1705 -3134.776 -502.4117 -3134.0057 L -501.23095 -3136.7874 C -503.36784 -3137.718 -505.657 -3138.188 -507.94776 -3138.198 C -512.32104 -3138.2167 -516.7002 -3136.5577 -520.0369 -3133.221 C -522.96576 -3130.292 -524.602 -3126.56 -524.94556 -3122.734 Z" stroke="#d2673a" stroke-linecap="round" stroke-linejoin="round" stroke-width="0"/>
          </g>
          <g id="Graphic_3950">
            <path d="M -519.1785 -3122.6968 L -516.1229 -3122.6968 C -515.83565 -3124.3136 -515.06744 -3125.8616 -513.81823 -3127.111 C -512.31135 -3128.6177 -510.3696 -3129.4247 -508.397 -3129.5318 L -508.397 -3132.556 C -511.1434 -3132.4468 -513.8576 -3131.3438 -515.9544 -3129.247 C -517.7942 -3127.407 -518.8689 -3125.092 -519.1785 -3122.6968 Z" fill="#3570a0"/>
            <path d="M -519.1785 -3122.6968 L -516.1229 -3122.6968 C -515.83565 -3124.3136 -515.06744 -3125.8616 -513.81823 -3127.111 C -512.31135 -3128.6177 -510.3696 -3129.4247 -508.397 -3129.5318 L -508.397 -3132.556 C -511.1434 -3132.4468 -513.8576 -3131.3438 -515.9544 -3129.247 C -517.7942 -3127.407 -518.8689 -3125.092 -519.1785 -3122.6968 Z" stroke="#3770a0" stroke-linecap="round" stroke-linejoin="round" stroke-width="0"/>
          </g>
          <g id="Graphic_3949">
            <path d="M -530.6065 -3122.6968 L -527.5779 -3122.6968 C -527.2337 -3127.2104 -525.33566 -3131.628 -521.8837 -3135.0797 C -514.21526 -3142.7482 -501.78225 -3142.7482 -494.1138 -3135.0797 C -493.24983 -3134.2158 -492.4832 -3133.2913 -491.8139 -3132.32 L -489.18996 -3133.835 C -489.9934 -3135.0277 -490.9226 -3136.161 -491.97765 -3137.216 C -500.82587 -3146.064 -515.17165 -3146.064 -524.01986 -3137.216 C -528.06177 -3133.174 -530.2573 -3127.985 -530.6065 -3122.6968 Z" fill="#efb54f"/>
            <path d="M -530.6065 -3122.6968 L -527.5779 -3122.6968 C -527.2337 -3127.2104 -525.33566 -3131.628 -521.8837 -3135.0797 C -514.21526 -3142.7482 -501.78225 -3142.7482 -494.1138 -3135.0797 C -493.24983 -3134.2158 -492.4832 -3133.2913 -491.8139 -3132.32 L -489.18996 -3133.835 C -489.9934 -3135.0277 -490.9226 -3136.161 -491.97765 -3137.216 C -500.82587 -3146.064 -515.17165 -3146.064 -524.01986 -3137.216 C -528.06177 -3133.174 -530.2573 -3127.985 -530.6065 -3122.6968 Z" stroke="#efb64f" stroke-linecap="round" stroke-linejoin="round" stroke-width="0"/>
          </g>
        </g>
        <g id="Group_4088">
          <title/>
          <g id="Graphic_4078">
            <path d="M -517.549 -3112.7074 L -517.549 -3119.1154 L -518.683 -3119.1154 L -519.853 -3115.9744 L -521.023 -3119.1154 L -522.148 -3119.1154 L -522.148 -3112.7074 L -520.87 -3112.7074 L -520.87 -3116.0374 L -520.186 -3113.8504 L -519.529 -3113.8504 L -518.827 -3116.0464 L -518.827 -3112.7074 Z" fill="#3770a1"/>
          </g>
          <g id="Graphic_4079">
            <path d="M -513.553 -3115.1284 C -513.553 -3115.7764 -513.58 -3116.5864 -513.886 -3117.0454 C -514.201 -3117.5134 -514.651 -3117.6214 -515.164 -3117.6214 C -515.677 -3117.6214 -516.127 -3117.5134 -516.442 -3117.0454 C -516.748 -3116.5864 -516.775 -3115.7764 -516.775 -3115.1284 C -516.775 -3114.4804 -516.748 -3113.6704 -516.442 -3113.2114 C -516.127 -3112.7434 -515.677 -3112.6354 -515.164 -3112.6354 C -514.651 -3112.6354 -514.201 -3112.7434 -513.886 -3113.2114 C -513.58 -3113.6704 -513.553 -3114.4804 -513.553 -3115.1284 Z M -514.759 -3115.1284 C -514.759 -3114.5794 -514.759 -3114.1024 -514.849 -3113.9044 C -514.912 -3113.7694 -515.047 -3113.7154 -515.164 -3113.7154 C -515.281 -3113.7154 -515.416 -3113.7694 -515.479 -3113.9044 C -515.569 -3114.1024 -515.569 -3114.5794 -515.569 -3115.1284 C -515.569 -3115.6774 -515.569 -3116.1544 -515.479 -3116.3524 C -515.416 -3116.4874 -515.281 -3116.5414 -515.164 -3116.5414 C -515.047 -3116.5414 -514.912 -3116.4874 -514.849 -3116.3524 C -514.759 -3116.1544 -514.759 -3115.6774 -514.759 -3115.1284 Z" fill="#3770a1"/>
          </g>
          <g id="Graphic_4080">
            <path d="M -509.8 -3112.7074 L -509.8 -3119.1154 L -511.006 -3119.1154 L -511.006 -3117.2614 C -511.096 -3117.3604 -511.195 -3117.4414 -511.303 -3117.5044 C -511.438 -3117.5764 -511.609 -3117.6214 -511.762 -3117.6214 C -512.158 -3117.6214 -512.428 -3117.5224 -512.662 -3117.2254 C -512.995 -3116.8114 -512.995 -3116.0914 -512.995 -3115.1284 C -512.995 -3114.1654 -512.995 -3113.4454 -512.662 -3113.0314 C -512.428 -3112.7344 -512.158 -3112.6354 -511.762 -3112.6354 C -511.609 -3112.6354 -511.438 -3112.6804 -511.303 -3112.7524 C -511.195 -3112.8154 -511.006 -3112.9684 -510.952 -3113.0584 L -510.952 -3112.7074 Z M -511.006 -3114.1564 C -511.006 -3114.0034 -511.042 -3113.8954 -511.114 -3113.8234 C -511.177 -3113.7514 -511.267 -3113.7154 -511.375 -3113.7154 C -511.501 -3113.7154 -511.609 -3113.7694 -511.681 -3113.8864 C -511.762 -3114.0124 -511.789 -3114.3004 -511.789 -3115.1284 C -511.789 -3115.9564 -511.762 -3116.2444 -511.681 -3116.3704 C -511.609 -3116.4874 -511.501 -3116.5414 -511.375 -3116.5414 C -511.267 -3116.5414 -511.177 -3116.5054 -511.114 -3116.4334 C -511.042 -3116.3614 -511.006 -3116.2534 -511.006 -3116.1004 Z" fill="#3770a1"/>
          </g>
          <g id="Graphic_4081">
            <path d="M -505.885 -3114.7414 C -505.885 -3115.8574 -505.93 -3116.7484 -506.371 -3117.2074 C -506.713 -3117.5584 -507.073 -3117.6214 -507.496 -3117.6214 C -507.901 -3117.6214 -508.288 -3117.5584 -508.63 -3117.2074 C -509.071 -3116.7484 -509.107 -3115.8574 -509.107 -3115.1284 C -509.107 -3114.3994 -509.071 -3113.5084 -508.63 -3113.0584 C -508.288 -3112.7074 -507.955 -3112.6354 -507.496 -3112.6354 C -506.992 -3112.6354 -506.623 -3112.7524 -506.353 -3113.0494 C -506.038 -3113.3914 -505.93 -3113.7964 -505.912 -3114.2014 L -507.118 -3114.2014 C -507.118 -3114.1204 -507.136 -3113.9764 -507.181 -3113.8954 C -507.244 -3113.7784 -507.343 -3113.7154 -507.496 -3113.7154 C -507.649 -3113.7154 -507.757 -3113.7964 -507.811 -3113.9044 C -507.883 -3114.0394 -507.901 -3114.4174 -507.901 -3114.7414 Z M -507.091 -3115.6144 L -507.901 -3115.6144 C -507.901 -3116.0284 -507.865 -3116.2624 -507.811 -3116.3614 C -507.748 -3116.4784 -507.658 -3116.5414 -507.496 -3116.5414 C -507.334 -3116.5414 -507.244 -3116.4784 -507.181 -3116.3614 C -507.127 -3116.2624 -507.091 -3116.0284 -507.091 -3115.6144 Z" fill="#3770a1"/>
          </g>
          <g id="Graphic_4082">
            <path d="M -503.419 -3112.7074 L -503.419 -3113.7874 C -503.824 -3113.7874 -504.013 -3113.9674 -504.013 -3114.3454 L -504.013 -3119.1154 L -505.219 -3119.1154 L -505.219 -3114.2644 C -505.219 -3113.6344 -505.003 -3113.2474 -504.661 -3113.0044 C -504.31 -3112.7524 -503.914 -3112.7074 -503.419 -3112.7074 Z" fill="#3770a1"/>
          </g>
          <g id="Graphic_4083">
            <path d="M -501.637 -3112.7074 L -501.637 -3117.3604 L -502.843 -3117.3604 L -502.843 -3112.7074 Z M -501.601 -3117.8914 L -501.601 -3119.1694 L -502.879 -3119.1694 L -502.879 -3117.8914 Z" fill="#3770a1"/>
          </g>
          <g id="Graphic_4084">
            <path d="M -497.641 -3112.7074 L -497.641 -3116.1184 C -497.641 -3116.7214 -497.722 -3116.9824 -497.911 -3117.2164 C -498.145 -3117.4954 -498.406 -3117.6214 -498.847 -3117.6214 C -499 -3117.6214 -499.171 -3117.5764 -499.306 -3117.5044 C -499.441 -3117.4324 -499.558 -3117.3154 -499.657 -3117.1984 L -499.657 -3117.5494 L -500.809 -3117.5494 L -500.809 -3112.7074 L -499.603 -3112.7074 L -499.603 -3116.1004 C -499.603 -3116.3974 -499.441 -3116.5414 -499.225 -3116.5414 C -499.009 -3116.5414 -498.847 -3116.3974 -498.847 -3116.1004 L -498.847 -3112.7074 Z" fill="#3770a1"/>
          </g>
          <g id="Graphic_4085">
            <path d="M -494.977 -3112.5454 C -494.977 -3112.4104 -495.004 -3112.3024 -495.067 -3112.2304 C -495.139 -3112.1494 -495.238 -3112.1044 -495.355 -3112.1044 C -495.49 -3112.1044 -495.58 -3112.1494 -495.643 -3112.2304 C -495.706 -3112.3204 -495.733 -3112.4374 -495.733 -3112.5724 L -496.939 -3112.5724 C -496.939 -3112.1944 -496.822 -3111.7894 -496.498 -3111.4834 C -496.21 -3111.2044 -495.787 -3111.0694 -495.355 -3111.0694 C -494.932 -3111.0694 -494.482 -3111.2224 -494.212 -3111.4834 C -493.951 -3111.7444 -493.771 -3112.1224 -493.771 -3112.6444 L -493.771 -3117.5494 L -494.923 -3117.5494 L -494.923 -3117.2614 C -495.013 -3117.3514 -495.112 -3117.4324 -495.229 -3117.5044 C -495.364 -3117.5854 -495.535 -3117.6214 -495.706 -3117.6214 C -496.102 -3117.6214 -496.345 -3117.5134 -496.57 -3117.2434 C -496.885 -3116.8654 -496.966 -3116.3344 -496.966 -3115.3804 C -496.966 -3114.4264 -496.885 -3113.8954 -496.57 -3113.5174 C -496.345 -3113.2474 -496.075 -3113.1394 -495.706 -3113.1394 C -495.544 -3113.1394 -495.382 -3113.1754 -495.256 -3113.2564 C -495.148 -3113.3284 -495.058 -3113.4094 -494.977 -3113.4994 Z M -494.977 -3114.6244 C -494.977 -3114.4714 -495.013 -3114.3634 -495.085 -3114.2914 C -495.148 -3114.2194 -495.238 -3114.1834 -495.346 -3114.1834 C -495.472 -3114.1834 -495.58 -3114.2464 -495.652 -3114.3544 C -495.733 -3114.4804 -495.76 -3114.6964 -495.76 -3115.3624 C -495.76 -3116.0284 -495.733 -3116.2444 -495.652 -3116.3704 C -495.58 -3116.4784 -495.472 -3116.5414 -495.346 -3116.5414 C -495.238 -3116.5414 -495.148 -3116.5054 -495.085 -3116.4334 C -495.013 -3116.3614 -494.977 -3116.2534 -494.977 -3116.1004 Z" fill="#3770a1"/>
          </g>
          <g id="Graphic_4086">
            <path d="M -507.325 -3103.1654 L -507.325 -3107.8544 L -508.603 -3107.8544 L -508.603 -3103.1024 C -508.603 -3102.6884 -508.846 -3102.5264 -509.134 -3102.5264 C -509.422 -3102.5264 -509.665 -3102.6884 -509.665 -3103.1024 L -509.665 -3107.8544 L -510.943 -3107.8544 L -510.943 -3103.1654 C -510.943 -3102.6524 -510.772 -3102.2204 -510.466 -3101.9054 C -510.124 -3101.5544 -509.674 -3101.3744 -509.134 -3101.3744 C -508.594 -3101.3744 -508.144 -3101.5544 -507.802 -3101.9054 C -507.496 -3102.2204 -507.325 -3102.6524 -507.325 -3103.1654 Z" fill="#c92505"/>
          </g>
          <g id="Graphic_4087">
            <rect x="-506.38" y="-3107.8544" width="1.278" height="6.408" fill="#c92505"/>
          </g>
        </g>
      </g>
    </g>
  </g>
</svg>

<svg xmlns="http://www.w3.org/2000/svg" viewBox="-532 -3145.185 48 48" width="48" height="48"><g fill="none"><path d="M-529-3145.185h42a3 3 0 0 1 3 3v42a3 3 0 0 1-3 3h-42a3 3 0 0 1-3-3v-42a3 3 0 0 1 3-3Z" fill="#fff"/><path d="M-530.604-3122.734h3.029a19.558 19.558 0 0 1 5.691-12.346c7.669-7.668 20.102-7.668 27.77 0a19.558 19.558 0 0 1 5.691 12.346h3.03a22.57 22.57 0 0 0-6.585-14.482c-8.848-8.848-23.194-8.848-32.042 0a22.57 22.57 0 0 0-6.584 14.482Z" fill="#efb54f" fill-opacity=".252"/><path d="M-530.604-3122.734h3.029a19.558 19.558 0 0 1 5.691-12.346c7.669-7.668 20.102-7.668 27.77 0a19.558 19.558 0 0 1 5.691 12.346h3.03a22.57 22.57 0 0 0-6.585-14.482c-8.848-8.848-23.194-8.848-32.042 0a22.57 22.57 0 0 0-6.584 14.482Z"/><path d="M-524.926-3122.697h3.036a13.913 13.913 0 0 1 4.012-8.378c5.456-5.456 14.303-5.456 19.759 0a13.913 13.913 0 0 1 4.012 8.378h3.035a16.924 16.924 0 0 0-4.91-10.514c-6.637-6.636-17.396-6.636-24.033 0a16.924 16.924 0 0 0-4.91 10.514Z" fill="#d3673a" fill-opacity=".249"/><path d="M-524.926-3122.697h3.036a13.913 13.913 0 0 1 4.012-8.378c5.456-5.456 14.303-5.456 19.759 0a13.913 13.913 0 0 1 4.012 8.378h3.035a16.924 16.924 0 0 0-4.91-10.514c-6.637-6.636-17.396-6.636-24.033 0a16.924 16.924 0 0 0-4.91 10.514Z"/><path d="M-519.223-3122.734h3.06a8.308 8.308 0 0 1 16.33 0h3.058a11.279 11.279 0 0 0-3.213-6.471c-4.424-4.425-11.597-4.425-16.021 0a11.279 11.279 0 0 0-3.214 6.471Z" fill="#3570a0" fill-opacity=".25"/><path d="M-519.223-3122.734h3.06a8.308 8.308 0 0 1 16.33 0h3.058a11.279 11.279 0 0 0-3.213-6.471c-4.424-4.425-11.597-4.425-16.021 0a11.279 11.279 0 0 0-3.214 6.471Z"/><path d="M-524.946-3122.734h3.036a13.914 13.914 0 0 1 4.01-8.35 13.93 13.93 0 0 1 9.958-4.093c1.887.01 3.772.401 5.53 1.171l1.181-2.781a17.012 17.012 0 0 0-6.717-1.411 16.94 16.94 0 0 0-12.089 4.977 16.925 16.925 0 0 0-4.909 10.487Z" fill="#d3673a"/><path d="M-524.946-3122.734h3.036a13.914 13.914 0 0 1 4.01-8.35 13.93 13.93 0 0 1 9.958-4.093c1.887.01 3.772.401 5.53 1.171l1.181-2.781a17.012 17.012 0 0 0-6.717-1.411 16.94 16.94 0 0 0-12.089 4.977 16.925 16.925 0 0 0-4.909 10.487Z"/><path d="M-519.178-3122.697h3.055a8.27 8.27 0 0 1 2.305-4.414 8.278 8.278 0 0 1 5.421-2.42v-3.025a11.288 11.288 0 0 0-7.557 3.309 11.28 11.28 0 0 0-3.225 6.55Z" fill="#3570a0"/><path d="M-519.178-3122.697h3.055a8.27 8.27 0 0 1 2.305-4.414 8.278 8.278 0 0 1 5.421-2.42v-3.025a11.288 11.288 0 0 0-7.557 3.309 11.28 11.28 0 0 0-3.225 6.55Z"/><path d="M-530.606-3122.697h3.028a19.559 19.559 0 0 1 5.694-12.383c7.669-7.668 20.102-7.668 27.77 0 .864.864 1.63 1.789 2.3 2.76l2.624-1.515a22.77 22.77 0 0 0-2.788-3.381c-8.848-8.848-23.194-8.848-32.042 0a22.57 22.57 0 0 0-6.587 14.52Z" fill="#efb54f"/><path d="M-530.606-3122.697h3.028a19.559 19.559 0 0 1 5.694-12.383c7.669-7.668 20.102-7.668 27.77 0 .864.864 1.63 1.789 2.3 2.76l2.624-1.515a22.77 22.77 0 0 0-2.788-3.381c-8.848-8.848-23.194-8.848-32.042 0a22.57 22.57 0 0 0-6.587 14.52Z"/><path d="M-517.549-3112.707v-6.408h-1.134l-1.17 3.14-1.17-3.14h-1.125v6.408h1.278v-3.33l.684 2.187h.657l.702-2.196v3.339ZM-513.553-3115.128c0-.648-.027-1.458-.333-1.917-.315-.468-.765-.576-1.278-.576s-.963.108-1.278.576c-.306.459-.333 1.269-.333 1.917 0 .648.027 1.458.333 1.917.315.468.765.576 1.278.576s.963-.108 1.278-.576c.306-.46.333-1.27.333-1.917Zm-1.206 0c0 .549 0 1.026-.09 1.224a.34.34 0 0 1-.315.189.34.34 0 0 1-.315-.19c-.09-.197-.09-.674-.09-1.223 0-.55 0-1.026.09-1.224a.34.34 0 0 1 .315-.19.34.34 0 0 1 .315.19c.09.198.09.675.09 1.224ZM-509.8-3112.707v-6.408h-1.206v1.854a1.257 1.257 0 0 0-.297-.243 1.022 1.022 0 0 0-.459-.117c-.396 0-.666.099-.9.396-.333.414-.333 1.134-.333 2.097 0 .963 0 1.683.333 2.097.234.297.504.396.9.396.153 0 .324-.045.459-.117.108-.063.297-.216.351-.306v.35Zm-1.206-1.45c0 .154-.036.262-.108.334a.333.333 0 0 1-.261.108.343.343 0 0 1-.306-.171c-.081-.126-.108-.414-.108-1.242 0-.828.027-1.116.108-1.242a.343.343 0 0 1 .306-.171c.108 0 .198.036.261.108.072.072.108.18.108.333ZM-505.885-3114.741c0-1.116-.045-2.007-.486-2.466-.342-.351-.702-.414-1.125-.414-.405 0-.792.063-1.134.414-.441.459-.477 1.35-.477 2.079 0 .729.036 1.62.477 2.07.342.35.675.423 1.134.423.504 0 .873-.117 1.143-.414.315-.342.423-.747.441-1.152h-1.206a.746.746 0 0 1-.063.306c-.063.117-.162.18-.315.18a.34.34 0 0 1-.315-.19c-.072-.134-.09-.512-.09-.836Zm-1.206-.873h-.81c0-.414.036-.648.09-.747.063-.117.153-.18.315-.18s.252.063.315.18c.054.099.09.333.09.747ZM-503.419-3112.707v-1.08c-.405 0-.594-.18-.594-.558v-4.77h-1.206v4.85c0 .63.216 1.018.558 1.26.351.253.747.298 1.242.298ZM-501.637-3112.707v-4.653h-1.206v4.653Zm.036-5.184v-1.278h-1.278v1.278ZM-497.641-3112.707v-3.411c0-.603-.081-.864-.27-1.098-.234-.28-.495-.405-.936-.405-.153 0-.324.045-.459.117a1.266 1.266 0 0 0-.351.306v-.351h-1.152v4.842h1.206v-3.393c0-.297.162-.441.378-.441s.378.144.378.44v3.394ZM-494.977-3112.545c0 .135-.027.243-.09.315a.374.374 0 0 1-.288.126c-.135 0-.225-.045-.288-.126a.588.588 0 0 1-.09-.342h-1.206c0 .378.117.783.441 1.089.288.279.711.414 1.143.414.423 0 .873-.153 1.143-.414.261-.261.441-.64.441-1.161v-4.905h-1.152v.288a1.653 1.653 0 0 0-.306-.243.937.937 0 0 0-.477-.117c-.396 0-.639.108-.864.378-.315.378-.396.909-.396 1.863s.081 1.485.396 1.863c.225.27.495.378.864.378a.84.84 0 0 0 .45-.117c.108-.072.198-.153.279-.243Zm0-2.08c0 .154-.036.262-.108.334a.333.333 0 0 1-.261.108.362.362 0 0 1-.306-.171c-.081-.126-.108-.342-.108-1.008 0-.666.027-.882.108-1.008a.362.362 0 0 1 .306-.171c.108 0 .198.036.261.108.072.072.108.18.108.333Z" fill="#3770a1"/><path d="M-507.325-3103.165v-4.69h-1.278v4.753c0 .414-.243.576-.531.576-.288 0-.531-.162-.531-.576v-4.752h-1.278v4.689c0 .513.171.945.477 1.26.342.35.792.53 1.332.53s.99-.18 1.332-.53c.306-.315.477-.747.477-1.26ZM-506.38-3107.854h1.278v6.408h-1.278z" fill="#c92505"/></g></svg>
